images/6604036.svg

<?xml version="1.0" encoding="UTF-8"?>
<svg xmlns="http://www.w3.org/2000/svg" xmlns:xlink="http://www.w3.org/1999/xlink" width="300pt" height="300pt" viewBox="0 0 300 300" version="1.1">
<defs>
<g>
<symbol overflow="visible" id="glyph0-0">
<path style="stroke:none;" d="M 0.546875 1.9375 L 0.546875 -7.75 L 6.046875 -7.75 L 6.046875 1.9375 Z M 1.171875 1.328125 L 5.4375 1.328125 L 5.4375 -7.140625 L 1.171875 -7.140625 Z M 1.171875 1.328125 "/>
</symbol>
<symbol overflow="visible" id="glyph0-1">
<path style="stroke:none;" d="M 1.078125 -8.015625 L 2.546875 -8.015625 L 6.09375 -1.3125 L 6.09375 -8.015625 L 7.15625 -8.015625 L 7.15625 0 L 5.6875 0 L 2.125 -6.703125 L 2.125 0 L 1.078125 0 Z M 1.078125 -8.015625 "/>
</symbol>
<symbol overflow="visible" id="glyph0-2">
<path style="stroke:none;" d="M 4.328125 -7.28125 C 3.546875 -7.28125 2.921875 -6.984375 2.453125 -6.390625 C 1.992188 -5.804688 1.765625 -5.007812 1.765625 -4 C 1.765625 -2.988281 1.992188 -2.1875 2.453125 -1.59375 C 2.921875 -1.007812 3.546875 -0.71875 4.328125 -0.71875 C 5.117188 -0.71875 5.742188 -1.007812 6.203125 -1.59375 C 6.660156 -2.1875 6.890625 -2.988281 6.890625 -4 C 6.890625 -5.007812 6.660156 -5.804688 6.203125 -6.390625 C 5.742188 -6.984375 5.117188 -7.28125 4.328125 -7.28125 Z M 4.328125 -8.171875 C 5.453125 -8.171875 6.351562 -7.789062 7.03125 -7.03125 C 7.707031 -6.28125 8.046875 -5.269531 8.046875 -4 C 8.046875 -2.738281 7.707031 -1.726562 7.03125 -0.96875 C 6.351562 -0.21875 5.453125 0.15625 4.328125 0.15625 C 3.203125 0.15625 2.300781 -0.21875 1.625 -0.96875 C 0.957031 -1.71875 0.625 -2.726562 0.625 -4 C 0.625 -5.269531 0.957031 -6.28125 1.625 -7.03125 C 2.300781 -7.789062 3.203125 -8.171875 4.328125 -8.171875 Z M 4.328125 -8.171875 "/>
</symbol>
</g>
</defs>
<g id="surface46453">
<rect x="0" y="0" width="300" height="300" style="fill:rgb(100%,100%,100%);fill-opacity:1;stroke:none;"/>
<path style="fill:none;stroke-width:1.2;stroke-linecap:butt;stroke-linejoin:miter;stroke:rgb(0%,0%,0%);stroke-opacity:1;stroke-miterlimit:10;" d="M 145.410156 181.582031 L 145.890625 168.082031 "/>
<path style="fill:none;stroke-width:1.2;stroke-linecap:butt;stroke-linejoin:miter;stroke:rgb(0%,0%,100%);stroke-opacity:1;stroke-miterlimit:10;" d="M 145.890625 168.082031 L 146.375 154.578125 "/>
<path style=" stroke:none;fill-rule:nonzero;fill:rgb(0%,0%,0%);fill-opacity:1;" d="M 123.46875 140.242188 L 143.84375 158.621094 L 148.902344 150.539062 Z M 123.46875 140.242188 "/>
<path style="fill:none;stroke-width:1.2;stroke-linecap:butt;stroke-linejoin:miter;stroke:rgb(0%,0%,100%);stroke-opacity:1;stroke-miterlimit:10;" d="M 146.375 154.578125 L 158.308594 148.246094 "/>
<path style="fill:none;stroke-width:1.2;stroke-linecap:butt;stroke-linejoin:miter;stroke:rgb(0%,0%,0%);stroke-opacity:1;stroke-miterlimit:10;" d="M 158.308594 148.246094 L 170.242188 141.914062 "/>
<path style=" stroke:none;fill-rule:nonzero;fill:rgb(100%,100%,100%);fill-opacity:1;" d="M 142.375 148.078125 L 150.375 148.078125 L 150.375 161.078125 L 142.375 161.078125 Z M 142.375 148.078125 "/>
<g style="fill:rgb(0%,0%,100%);fill-opacity:1;">
  <use xlink:href="#glyph0-1" x="142.375" y="157.979492"/>
</g>
<path style="fill:none;stroke-width:1.2;stroke-linecap:butt;stroke-linejoin:miter;stroke:rgb(0%,0%,0%);stroke-opacity:1;stroke-miterlimit:10;" d="M 123.46875 140.242188 L 124.433594 113.238281 "/>
<path style="fill:none;stroke-width:1.2;stroke-linecap:butt;stroke-linejoin:miter;stroke:rgb(0%,0%,0%);stroke-opacity:1;stroke-miterlimit:10;" d="M 99.601562 152.90625 L 123.46875 140.242188 "/>
<path style="fill:none;stroke-width:1.2;stroke-linecap:butt;stroke-linejoin:miter;stroke:rgb(0%,0%,0%);stroke-opacity:1;stroke-miterlimit:10;" d="M 124.433594 113.238281 L 101.53125 98.902344 "/>
<path style="fill:none;stroke-width:1;stroke-linecap:butt;stroke-linejoin:miter;stroke:rgb(0%,0%,0%);stroke-opacity:1;stroke-miterlimit:10;" d="M 77.664062 111.566406 L 77.664062 111.566406 M 80.515625 110.640625 L 80.027344 109.722656 M 83.371094 109.71875 L 82.394531 107.875 M 86.226562 108.792969 L 84.757812 106.03125 M 89.078125 107.871094 L 87.125 104.183594 M 91.933594 106.945312 L 89.488281 102.339844 M 94.789062 106.019531 L 91.855469 100.496094 M 97.640625 105.097656 L 94.21875 98.648438 M 100.496094 104.171875 L 96.585938 96.804688 M 103.351562 103.246094 L 98.949219 94.957031 M 103.765625 103.113281 L 99.296875 94.6875 "/>
<path style="fill:none;stroke-width:1.2;stroke-linecap:butt;stroke-linejoin:miter;stroke:rgb(0%,0%,0%);stroke-opacity:1;stroke-miterlimit:10;" d="M 77.664062 111.566406 L 52.601562 121.667969 "/>
<path style="fill:none;stroke-width:1.2;stroke-linecap:butt;stroke-linejoin:miter;stroke:rgb(0%,0%,0%);stroke-opacity:1;stroke-miterlimit:10;" d="M 77.664062 111.566406 L 76.699219 138.570312 "/>
<path style="fill:none;stroke-width:1.2;stroke-linecap:butt;stroke-linejoin:miter;stroke:rgb(100%,0%,0%);stroke-opacity:1;stroke-miterlimit:10;" d="M 75.800781 84.609375 L 76.730469 98.089844 "/>
<path style="fill:none;stroke-width:1.2;stroke-linecap:butt;stroke-linejoin:miter;stroke:rgb(0%,0%,0%);stroke-opacity:1;stroke-miterlimit:10;" d="M 76.730469 98.089844 L 77.664062 111.566406 "/>
<path style="fill:none;stroke-width:1.2;stroke-linecap:butt;stroke-linejoin:miter;stroke:rgb(0%,0%,0%);stroke-opacity:1;stroke-miterlimit:10;" d="M 52.601562 121.667969 L 35.25 100.957031 "/>
<path style="fill:none;stroke-width:1.2;stroke-linecap:butt;stroke-linejoin:miter;stroke:rgb(0%,0%,0%);stroke-opacity:1;stroke-miterlimit:10;" d="M 35.25 100.957031 L 49.585938 78.050781 "/>
<path style="fill:none;stroke-width:1.2;stroke-linecap:butt;stroke-linejoin:miter;stroke:rgb(0%,0%,0%);stroke-opacity:1;stroke-miterlimit:10;" d="M 49.585938 78.050781 L 62.695312 81.332031 "/>
<path style="fill:none;stroke-width:1.2;stroke-linecap:butt;stroke-linejoin:miter;stroke:rgb(100%,0%,0%);stroke-opacity:1;stroke-miterlimit:10;" d="M 62.695312 81.332031 L 75.800781 84.609375 "/>
<path style=" stroke:none;fill-rule:nonzero;fill:rgb(100%,100%,100%);fill-opacity:1;" d="M 71.800781 78.109375 L 80.800781 78.109375 L 80.800781 91.109375 L 71.800781 91.109375 Z M 71.800781 78.109375 "/>
<g style="fill:rgb(100%,0%,0%);fill-opacity:1;">
  <use xlink:href="#glyph0-2" x="71.800781" y="88.010742"/>
</g>
<path style="fill:none;stroke-width:1.2;stroke-linecap:butt;stroke-linejoin:miter;stroke:rgb(0%,0%,0%);stroke-opacity:1;stroke-miterlimit:10;" d="M 76.699219 138.570312 L 99.601562 152.90625 "/>
<path style="fill:none;stroke-width:1;stroke-linecap:butt;stroke-linejoin:miter;stroke:rgb(0%,0%,0%);stroke-opacity:1;stroke-miterlimit:10;" d="M 99.601562 152.90625 L 99.601562 152.90625 M 98.976562 155.839844 L 100.015625 155.878906 M 98.347656 158.777344 L 100.433594 158.851562 M 97.722656 161.710938 L 100.847656 161.820312 M 97.097656 164.644531 L 101.265625 164.792969 M 96.46875 167.578125 L 101.679688 167.761719 M 95.84375 170.511719 L 102.09375 170.734375 M 95.214844 173.445312 L 102.511719 173.707031 M 94.589844 176.378906 L 102.925781 176.675781 M 93.964844 179.3125 L 103.339844 179.648438 M 93.871094 179.742188 L 103.402344 180.082031 "/>
<path style="fill:none;stroke-width:1.2;stroke-linecap:butt;stroke-linejoin:miter;stroke:rgb(0%,0%,100%);stroke-opacity:1;stroke-miterlimit:10;" d="M 98.636719 179.910156 L 109.277344 188.238281 "/>
<path style="fill:none;stroke-width:1.2;stroke-linecap:butt;stroke-linejoin:miter;stroke:rgb(0%,0%,0%);stroke-opacity:1;stroke-miterlimit:10;" d="M 109.277344 188.238281 L 119.917969 196.5625 "/>
<path style="fill:none;stroke-width:1.2;stroke-linecap:butt;stroke-linejoin:miter;stroke:rgb(0%,0%,0%);stroke-opacity:1;stroke-miterlimit:10;" d="M 76.222656 195.003906 L 87.429688 187.457031 "/>
<path style="fill:none;stroke-width:1.2;stroke-linecap:butt;stroke-linejoin:miter;stroke:rgb(0%,0%,100%);stroke-opacity:1;stroke-miterlimit:10;" d="M 87.429688 187.457031 L 98.636719 179.910156 "/>
<path style=" stroke:none;fill-rule:nonzero;fill:rgb(100%,100%,100%);fill-opacity:1;" d="M 94.636719 173.410156 L 102.636719 173.410156 L 102.636719 186.410156 L 94.636719 186.410156 Z M 94.636719 173.410156 "/>
<g style="fill:rgb(0%,0%,100%);fill-opacity:1;">
  <use xlink:href="#glyph0-1" x="94.636719" y="183.311523"/>
</g>
<path style="fill:none;stroke-width:1.2;stroke-linecap:butt;stroke-linejoin:miter;stroke:rgb(0%,0%,0%);stroke-opacity:1;stroke-miterlimit:10;" d="M 119.917969 196.5625 L 110.652344 221.949219 "/>
<path style="fill:none;stroke-width:1.2;stroke-linecap:butt;stroke-linejoin:miter;stroke:rgb(0%,0%,0%);stroke-opacity:1;stroke-miterlimit:10;" d="M 110.652344 221.949219 L 83.652344 220.984375 "/>
<path style="fill:none;stroke-width:1.2;stroke-linecap:butt;stroke-linejoin:miter;stroke:rgb(0%,0%,0%);stroke-opacity:1;stroke-miterlimit:10;" d="M 83.652344 220.984375 L 76.222656 195.003906 "/>
<path style="fill:none;stroke-width:1.2;stroke-linecap:butt;stroke-linejoin:miter;stroke:rgb(0%,0%,0%);stroke-opacity:1;stroke-miterlimit:10;" d="M 173.417969 142.027344 L 173.902344 128.523438 "/>
<path style="fill:none;stroke-width:1.2;stroke-linecap:butt;stroke-linejoin:miter;stroke:rgb(100%,0%,0%);stroke-opacity:1;stroke-miterlimit:10;" d="M 173.902344 128.523438 L 174.382812 115.023438 "/>
<path style="fill:none;stroke-width:1.2;stroke-linecap:butt;stroke-linejoin:miter;stroke:rgb(0%,0%,0%);stroke-opacity:1;stroke-miterlimit:10;" d="M 167.066406 141.800781 L 167.546875 128.296875 "/>
<path style="fill:none;stroke-width:1.2;stroke-linecap:butt;stroke-linejoin:miter;stroke:rgb(100%,0%,0%);stroke-opacity:1;stroke-miterlimit:10;" d="M 167.546875 128.296875 L 168.03125 114.796875 "/>
<path style="fill:none;stroke-width:1.2;stroke-linecap:butt;stroke-linejoin:miter;stroke:rgb(0%,0%,0%);stroke-opacity:1;stroke-miterlimit:10;" d="M 170.242188 141.914062 L 193.144531 156.25 "/>
<path style=" stroke:none;fill-rule:nonzero;fill:rgb(100%,100%,100%);fill-opacity:1;" d="M 167.207031 108.410156 L 176.207031 108.410156 L 176.207031 121.410156 L 167.207031 121.410156 Z M 167.207031 108.410156 "/>
<g style="fill:rgb(100%,0%,0%);fill-opacity:1;">
  <use xlink:href="#glyph0-2" x="167.207031" y="118.311523"/>
</g>
<path style="fill:none;stroke-width:1.2;stroke-linecap:butt;stroke-linejoin:miter;stroke:rgb(0%,0%,0%);stroke-opacity:1;stroke-miterlimit:10;" d="M 193.144531 156.25 L 217.011719 143.582031 "/>
<path style="fill:none;stroke-width:1.2;stroke-linecap:butt;stroke-linejoin:miter;stroke:rgb(0%,0%,0%);stroke-opacity:1;stroke-miterlimit:10;" d="M 217.011719 143.582031 L 217.976562 116.582031 "/>
<path style="fill:none;stroke-width:1.2;stroke-linecap:butt;stroke-linejoin:miter;stroke:rgb(0%,0%,0%);stroke-opacity:1;stroke-miterlimit:10;" d="M 223.464844 141.109375 L 224.234375 119.507812 "/>
<path style="fill:none;stroke-width:1.2;stroke-linecap:butt;stroke-linejoin:miter;stroke:rgb(0%,0%,0%);stroke-opacity:1;stroke-miterlimit:10;" d="M 239.917969 157.921875 L 217.011719 143.582031 "/>
<path style="fill:none;stroke-width:1.2;stroke-linecap:butt;stroke-linejoin:miter;stroke:rgb(0%,0%,0%);stroke-opacity:1;stroke-miterlimit:10;" d="M 217.976562 116.582031 L 241.847656 103.914062 "/>
<path style="fill:none;stroke-width:1.2;stroke-linecap:butt;stroke-linejoin:miter;stroke:rgb(0%,0%,0%);stroke-opacity:1;stroke-miterlimit:10;" d="M 241.847656 103.914062 L 264.75 118.25 "/>
<path style="fill:none;stroke-width:1.2;stroke-linecap:butt;stroke-linejoin:miter;stroke:rgb(0%,0%,0%);stroke-opacity:1;stroke-miterlimit:10;" d="M 240.761719 110.738281 L 259.085938 122.207031 "/>
<path style="fill:none;stroke-width:1.2;stroke-linecap:butt;stroke-linejoin:miter;stroke:rgb(0%,0%,0%);stroke-opacity:1;stroke-miterlimit:10;" d="M 264.75 118.25 L 263.785156 145.253906 "/>
<path style="fill:none;stroke-width:1.2;stroke-linecap:butt;stroke-linejoin:miter;stroke:rgb(0%,0%,0%);stroke-opacity:1;stroke-miterlimit:10;" d="M 263.785156 145.253906 L 239.917969 157.921875 "/>
<path style="fill:none;stroke-width:1.2;stroke-linecap:butt;stroke-linejoin:miter;stroke:rgb(0%,0%,0%);stroke-opacity:1;stroke-miterlimit:10;" d="M 258.417969 140.90625 L 239.324219 151.039062 "/>
</g>
</svg>

<svg xmlns="http://www.w3.org/2000/svg" xmlns:xlink="http://www.w3.org/1999/xlink" width="300pt" height="300pt" viewBox="0 0 300 300"><defs><symbol overflow="visible"><path d="M.547 1.938V-7.75h5.5v9.688zm.625-.61h4.266v-8.47H1.171zm0 0"/></symbol><symbol overflow="visible" id="a"><path d="M1.078-8.016h1.47l3.546 6.704v-6.704h1.062V0H5.688L2.124-6.703V0H1.078zm0 0"/></symbol><symbol overflow="visible" id="b"><path d="M4.328-7.28c-.78 0-1.406.296-1.875.89-.46.585-.687 1.382-.687 2.39 0 1.012.226 1.813.687 2.406.47.586 1.094.875 1.875.875.79 0 1.414-.288 1.875-.874.457-.593.688-1.394.688-2.406 0-1.008-.23-1.805-.687-2.39-.46-.594-1.086-.89-1.875-.89zm0-.892c1.125 0 2.024.383 2.703 1.14C7.708-6.28 8.048-5.27 8.048-4c0 1.262-.34 2.273-1.016 3.03C6.353-.22 5.454.157 4.33.157S2.3-.22 1.625-.97c-.668-.75-1-1.757-1-3.03 0-1.27.332-2.28 1-3.03.676-.76 1.578-1.142 2.703-1.142zm0 0"/></symbol></defs><g><path fill="#fff" d="M0 0h300v300H0z"/><path d="M145.41 181.582l.48-13.5" stroke-width="1.2" stroke="#000" stroke-miterlimit="10" fill="none"/><path d="M145.89 168.082l.485-13.504" stroke-width="1.2" stroke="#00f" stroke-miterlimit="10" fill="none"/><path d="M123.47 140.242l20.374 18.38 5.058-8.083zm0 0"/><path d="M146.375 154.578l11.934-6.332" stroke-width="1.2" stroke="#00f" stroke-miterlimit="10" fill="none"/><path d="M158.31 148.246l11.932-6.332" stroke-width="1.2" stroke="#000" stroke-miterlimit="10" fill="none"/><path d="M142.375 148.078h8v13h-8zm0 0" fill="#fff"/><use xlink:href="#a" x="142.375" y="157.979" fill="#00f"/><path d="M123.47 140.242l.964-27.004M99.602 152.906l23.867-12.664M124.434 113.238L101.53 98.902" stroke-width="1.2" stroke="#000" stroke-miterlimit="10" fill="none"/><path d="M77.664 111.566m2.852-.925l-.49-.917m3.345-.004l-.975-1.845m3.832.918l-1.47-2.762m4.32 1.84l-1.952-3.686m4.81 2.76l-2.447-4.604m5.3 3.68l-2.933-5.524m5.786 4.602l-3.42-6.45m6.276 5.524l-3.91-7.367m6.766 6.44l-4.403-8.288m4.816 8.156l-4.47-8.425" stroke="#000" stroke-miterlimit="10" fill="none"/><path d="M77.664 111.566l-25.062 10.102M77.664 111.566L76.7 138.57" stroke-width="1.2" stroke="#000" stroke-miterlimit="10" fill="none"/><path d="M75.8 84.61l.93 13.48" stroke-width="1.2" stroke="#f00" stroke-miterlimit="10" fill="none"/><path d="M76.73 98.09l.934 13.476M52.602 121.668l-17.352-20.71M35.25 100.957L49.586 78.05M49.586 78.05l13.11 3.282" stroke-width="1.2" stroke="#000" stroke-miterlimit="10" fill="none"/><path d="M62.695 81.332L75.8 84.61" stroke-width="1.2" stroke="#f00" stroke-miterlimit="10" fill="none"/><path d="M71.8 78.11h9v13h-9zm0 0" fill="#fff"/><use xlink:href="#b" x="71.801" y="88.011" fill="#f00"/><path d="M76.7 138.57L99.6 152.906" stroke-width="1.2" stroke="#000" stroke-miterlimit="10" fill="none"/><path d="M99.602 152.906m-.625 2.934l1.04.04m-1.67 2.897l2.087.075m-2.71 2.86l3.124.108m-3.75 2.825l4.168.148m-4.797 2.785l5.21.184m-5.836 2.75l6.25.222m-6.88 2.71l7.298.263m-7.922 2.672l8.336.296m-8.96 2.637l9.374.335m-9.47.094l9.532.34" stroke="#000" stroke-miterlimit="10" fill="none"/><path d="M98.637 179.91l10.64 8.328" stroke-width="1.2" stroke="#00f" stroke-miterlimit="10" fill="none"/><path d="M109.277 188.238l10.64 8.325M76.223 195.004l11.207-7.547" stroke-width="1.2" stroke="#000" stroke-miterlimit="10" fill="none"/><path d="M87.43 187.457l11.207-7.547" stroke-width="1.2" stroke="#00f" stroke-miterlimit="10" fill="none"/><path d="M94.637 173.41h8v13h-8zm0 0" fill="#fff"/><use xlink:href="#a" x="94.637" y="183.312" fill="#00f"/><path d="M119.918 196.563l-9.266 25.386M110.652 221.95l-27-.966M83.652 220.984l-7.43-25.98M173.418 142.027l.484-13.504" stroke-width="1.2" stroke="#000" stroke-miterlimit="10" fill="none"/><path d="M173.902 128.523l.48-13.5" stroke-width="1.2" stroke="#f00" stroke-miterlimit="10" fill="none"/><path d="M167.066 141.8l.48-13.503" stroke-width="1.2" stroke="#000" stroke-miterlimit="10" fill="none"/><path d="M167.547 128.297l.484-13.5" stroke-width="1.2" stroke="#f00" stroke-miterlimit="10" fill="none"/><path d="M170.242 141.914l22.903 14.336" stroke-width="1.2" stroke="#000" stroke-miterlimit="10" fill="none"/><path d="M167.207 108.41h9v13h-9zm0 0" fill="#fff"/><use xlink:href="#b" x="167.207" y="118.312" fill="#f00"/><path d="M193.145 156.25l23.867-12.668M217.012 143.582l.965-27M223.465 141.11l.77-21.602M239.918 157.922l-22.906-14.34M217.977 116.582l23.87-12.668M241.848 103.914l22.902 14.336M240.762 110.738l18.324 11.47M264.75 118.25l-.965 27.004M263.785 145.254l-23.867 12.668M258.418 140.906l-19.094 10.133" stroke-width="1.2" stroke="#000" stroke-miterlimit="10" fill="none"/></g></svg>
